T: Peggy's
M: 6/8
L: 1/8
K: Gmaj
B2 B GBd|cec E2 E|F2 F DFA|GBe d2 c|!ABB GBd|cec E2 E|EFF DFA|[1GBA G3:|[2GBA G2 A/2c/2||!d2 d def|gbg d2 g|f2 f A2 B|cec B2 c|!d>e^c def|gbg d2 g|fed cAF|[1AGF G2 B/2c/2:|[2AGF G2 B||!
